yre/img/svg/icons/brand-4.svg

<svg width="62" height="62" viewBox="0 0 62 62" fill="none" xmlns="http://www.w3.org/2000/svg">
<path d="M31 43.1094C30.3316 43.1094 29.7891 43.6519 29.7891 44.3203C29.7891 44.9887 30.3316 45.5312 31 45.5312C31.6684 45.5312 32.2109 44.9887 32.2109 44.3203C32.2109 43.6519 31.6684 43.1094 31 43.1094Z" fill="black"/>
<path d="M31 43.1094C30.3316 43.1094 29.7891 43.6519 29.7891 44.3203C29.7891 44.9887 30.3316 45.5312 31 45.5312C31.6684 45.5312 32.2109 44.9887 32.2109 44.3203C32.2109 43.6519 31.6684 43.1094 31 43.1094Z" fill="url(#paint0_linear)"/>
<path d="M58.3672 23.7344H54.0078C54.0078 19.6985 54.0078 9.55505 54.0078 5.57031C54.0078 3.56706 52.3783 1.9375 50.375 1.9375H3.63281C1.62956 1.9375 0 3.56706 0 5.57031V34.6328C0 36.6361 1.62956 38.2656 3.63281 38.2656H7.99219V56.4297C7.99219 58.4329 9.62175 60.0625 11.625 60.0625H58.3672C60.3704 60.0625 62 58.4329 62 56.4297V27.3672C62 25.3639 60.3704 23.7344 58.3672 23.7344ZM2.42188 11.625H51.5859V16.4688H2.42188V11.625ZM3.63281 4.35938H50.375C51.0429 4.35938 51.5859 4.9024 51.5859 5.57031V9.20312H2.42188V5.57031C2.42188 4.9024 2.9649 4.35938 3.63281 4.35938ZM3.63281 35.8438C2.9649 35.8438 2.42188 35.3007 2.42188 34.6328V18.8906H51.5859V23.7344H11.625C9.62175 23.7344 7.99219 25.3639 7.99219 27.3672V35.8438H3.63281ZM59.5781 56.4297C59.5781 57.0976 59.0351 57.6406 58.3672 57.6406H11.625C10.9571 57.6406 10.4141 57.0976 10.4141 56.4297V27.3672C10.4141 26.6993 10.9571 26.1562 11.625 26.1562H58.3672C59.0351 26.1562 59.5781 26.6993 59.5781 27.3672V56.4297Z" fill="black"/>
<path d="M58.3672 23.7344H54.0078C54.0078 19.6985 54.0078 9.55505 54.0078 5.57031C54.0078 3.56706 52.3783 1.9375 50.375 1.9375H3.63281C1.62956 1.9375 0 3.56706 0 5.57031V34.6328C0 36.6361 1.62956 38.2656 3.63281 38.2656H7.99219V56.4297C7.99219 58.4329 9.62175 60.0625 11.625 60.0625H58.3672C60.3704 60.0625 62 58.4329 62 56.4297V27.3672C62 25.3639 60.3704 23.7344 58.3672 23.7344ZM2.42188 11.625H51.5859V16.4688H2.42188V11.625ZM3.63281 4.35938H50.375C51.0429 4.35938 51.5859 4.9024 51.5859 5.57031V9.20312H2.42188V5.57031C2.42188 4.9024 2.9649 4.35938 3.63281 4.35938ZM3.63281 35.8438C2.9649 35.8438 2.42188 35.3007 2.42188 34.6328V18.8906H51.5859V23.7344H11.625C9.62175 23.7344 7.99219 25.3639 7.99219 27.3672V35.8438H3.63281ZM59.5781 56.4297C59.5781 57.0976 59.0351 57.6406 58.3672 57.6406H11.625C10.9571 57.6406 10.4141 57.0976 10.4141 56.4297V27.3672C10.4141 26.6993 10.9571 26.1562 11.625 26.1562H58.3672C59.0351 26.1562 59.5781 26.6993 59.5781 27.3672V56.4297Z" fill="url(#paint1_linear)"/>
<path d="M47.9531 31C46.6329 31 45.36 31.4333 44.3198 32.2133C43.2806 31.4333 42.0082 31 40.6875 31C37.3489 31 34.6328 33.7161 34.6328 37.0547C34.6328 40.3933 37.3489 43.1094 40.6875 43.1094C42.0082 43.1094 43.2811 42.6761 44.3198 41.8961C45.36 42.6761 46.6329 43.1094 47.9531 43.1094C51.2917 43.1094 54.0078 40.3933 54.0078 37.0547C54.0078 33.7161 51.2917 31 47.9531 31ZM37.0547 37.0547C37.0547 35.0514 38.6842 33.4219 40.6875 33.4219C41.7291 33.4219 42.7215 33.8703 43.4107 34.6522C43.4107 34.6527 43.4112 34.6532 43.4116 34.6536C43.9977 35.3163 44.3203 36.1692 44.3203 37.0547C44.3203 37.9402 43.9977 38.793 43.4107 39.4572C42.7215 40.2391 41.7291 40.6875 40.6875 40.6875C38.6842 40.6875 37.0547 39.0579 37.0547 37.0547ZM47.9531 40.6875C47.228 40.6875 46.5265 40.4694 45.9338 40.0735C46.4593 39.1615 46.7422 38.1223 46.7422 37.0547C46.7422 35.9871 46.4593 34.9478 45.9338 34.0359C46.5265 33.6399 47.228 33.4219 47.9531 33.4219C49.9564 33.4219 51.5859 35.0514 51.5859 37.0547C51.5859 39.0579 49.9564 40.6875 47.9531 40.6875Z" fill="black"/>
<path d="M47.9531 31C46.6329 31 45.36 31.4333 44.3198 32.2133C43.2806 31.4333 42.0082 31 40.6875 31C37.3489 31 34.6328 33.7161 34.6328 37.0547C34.6328 40.3933 37.3489 43.1094 40.6875 43.1094C42.0082 43.1094 43.2811 42.6761 44.3198 41.8961C45.36 42.6761 46.6329 43.1094 47.9531 43.1094C51.2917 43.1094 54.0078 40.3933 54.0078 37.0547C54.0078 33.7161 51.2917 31 47.9531 31ZM37.0547 37.0547C37.0547 35.0514 38.6842 33.4219 40.6875 33.4219C41.7291 33.4219 42.7215 33.8703 43.4107 34.6522C43.4107 34.6527 43.4112 34.6532 43.4116 34.6536C43.9977 35.3163 44.3203 36.1692 44.3203 37.0547C44.3203 37.9402 43.9977 38.793 43.4107 39.4572C42.7215 40.2391 41.7291 40.6875 40.6875 40.6875C38.6842 40.6875 37.0547 39.0579 37.0547 37.0547ZM47.9531 40.6875C47.228 40.6875 46.5265 40.4694 45.9338 40.0735C46.4593 39.1615 46.7422 38.1223 46.7422 37.0547C46.7422 35.9871 46.4593 34.9478 45.9338 34.0359C46.5265 33.6399 47.228 33.4219 47.9531 33.4219C49.9564 33.4219 51.5859 35.0514 51.5859 37.0547C51.5859 39.0579 49.9564 40.6875 47.9531 40.6875Z" fill="url(#paint2_linear)"/>
<path d="M21.3125 50.375H16.4688C15.7999 50.375 15.2578 50.9171 15.2578 51.5859C15.2578 52.2548 15.7999 52.7969 16.4688 52.7969H21.3125C21.9814 52.7969 22.5234 52.2548 22.5234 51.5859C22.5234 50.9171 21.9814 50.375 21.3125 50.375Z" fill="black"/>
<path d="M21.3125 50.375H16.4688C15.7999 50.375 15.2578 50.9171 15.2578 51.5859C15.2578 52.2548 15.7999 52.7969 16.4688 52.7969H21.3125C21.9814 52.7969 22.5234 52.2548 22.5234 51.5859C22.5234 50.9171 21.9814 50.375 21.3125 50.375Z" fill="url(#paint3_linear)"/>
<path d="M31 50.375H26.1562C25.4874 50.375 24.9453 50.9171 24.9453 51.5859C24.9453 52.2548 25.4874 52.7969 26.1562 52.7969H31C31.6689 52.7969 32.2109 52.2548 32.2109 51.5859C32.2109 50.9171 31.6689 50.375 31 50.375Z" fill="black"/>
<path d="M31 50.375H26.1562C25.4874 50.375 24.9453 50.9171 24.9453 51.5859C24.9453 52.2548 25.4874 52.7969 26.1562 52.7969H31C31.6689 52.7969 32.2109 52.2548 32.2109 51.5859C32.2109 50.9171 31.6689 50.375 31 50.375Z" fill="url(#paint4_linear)"/>
<path d="M40.6875 50.375H35.8438C35.1749 50.375 34.6328 50.9171 34.6328 51.5859C34.6328 52.2548 35.1749 52.7969 35.8438 52.7969H40.6875C41.3564 52.7969 41.8984 52.2548 41.8984 51.5859C41.8984 50.9171 41.3564 50.375 40.6875 50.375Z" fill="black"/>
<path d="M40.6875 50.375H35.8438C35.1749 50.375 34.6328 50.9171 34.6328 51.5859C34.6328 52.2548 35.1749 52.7969 35.8438 52.7969H40.6875C41.3564 52.7969 41.8984 52.2548 41.8984 51.5859C41.8984 50.9171 41.3564 50.375 40.6875 50.375Z" fill="url(#paint5_linear)"/>
<path d="M50.375 50.375H45.5312C44.8624 50.375 44.3203 50.9171 44.3203 51.5859C44.3203 52.2548 44.8624 52.7969 45.5312 52.7969H50.375C51.0439 52.7969 51.5859 52.2548 51.5859 51.5859C51.5859 50.9171 51.0439 50.375 50.375 50.375Z" fill="black"/>
<path d="M50.375 50.375H45.5312C44.8624 50.375 44.3203 50.9171 44.3203 51.5859C44.3203 52.2548 44.8624 52.7969 45.5312 52.7969H50.375C51.0439 52.7969 51.5859 52.2548 51.5859 51.5859C51.5859 50.9171 51.0439 50.375 50.375 50.375Z" fill="url(#paint6_linear)"/>
<path d="M16.4688 45.5312H26.1562C26.8251 45.5312 27.3672 44.9892 27.3672 44.3203C27.3672 43.6515 26.8251 43.1094 26.1562 43.1094H16.4688C15.7999 43.1094 15.2578 43.6515 15.2578 44.3203C15.2578 44.9892 15.7999 45.5312 16.4688 45.5312Z" fill="black"/>
<path d="M16.4688 45.5312H26.1562C26.8251 45.5312 27.3672 44.9892 27.3672 44.3203C27.3672 43.6515 26.8251 43.1094 26.1562 43.1094H16.4688C15.7999 43.1094 15.2578 43.6515 15.2578 44.3203C15.2578 44.9892 15.7999 45.5312 16.4688 45.5312Z" fill="url(#paint7_linear)"/>
<defs>
<linearGradient id="paint0_linear" x1="31" y1="43.1094" x2="31" y2="45.5312" gradientUnits="userSpaceOnUse">
<stop stop-color="#EC407A"/>
<stop offset="1" stop-color="#C40135"/>
</linearGradient>
<linearGradient id="paint1_linear" x1="31" y1="1.9375" x2="31" y2="60.0625" gradientUnits="userSpaceOnUse">
<stop stop-color="#EC407A"/>
<stop offset="1" stop-color="#C40135"/>
</linearGradient>
<linearGradient id="paint2_linear" x1="44.3203" y1="31" x2="44.3203" y2="43.1094" gradientUnits="userSpaceOnUse">
<stop stop-color="#EC407A"/>
<stop offset="1" stop-color="#C40135"/>
</linearGradient>
<linearGradient id="paint3_linear" x1="18.8906" y1="50.375" x2="18.8906" y2="52.7969" gradientUnits="userSpaceOnUse">
<stop stop-color="#EC407A"/>
<stop offset="1" stop-color="#C40135"/>
</linearGradient>
<linearGradient id="paint4_linear" x1="28.5781" y1="50.375" x2="28.5781" y2="52.7969" gradientUnits="userSpaceOnUse">
<stop stop-color="#EC407A"/>
<stop offset="1" stop-color="#C40135"/>
</linearGradient>
<linearGradient id="paint5_linear" x1="38.2656" y1="50.375" x2="38.2656" y2="52.7969" gradientUnits="userSpaceOnUse">
<stop stop-color="#EC407A"/>
<stop offset="1" stop-color="#C40135"/>
</linearGradient>
<linearGradient id="paint6_linear" x1="47.9531" y1="50.375" x2="47.9531" y2="52.7969" gradientUnits="userSpaceOnUse">
<stop stop-color="#EC407A"/>
<stop offset="1" stop-color="#C40135"/>
</linearGradient>
<linearGradient id="paint7_linear" x1="21.3125" y1="43.1094" x2="21.3125" y2="45.5312" gradientUnits="userSpaceOnUse">
<stop stop-color="#EC407A"/>
<stop offset="1" stop-color="#C40135"/>
</linearGradient>
</defs>
</svg>

<svg width="62" height="62" fill="none" xmlns="http://www.w3.org/2000/svg"><path d="M31 43.11a1.211 1.211 0 100 2.422 1.211 1.211 0 000-2.423z" fill="#000"/><path d="M31 43.11a1.211 1.211 0 100 2.422 1.211 1.211 0 000-2.423z" fill="url(#paint0_linear)"/><path d="M58.367 23.734h-4.36V5.57a3.637 3.637 0 00-3.632-3.633H3.633A3.637 3.637 0 000 5.57v29.063a3.637 3.637 0 003.633 3.633h4.36V56.43a3.637 3.637 0 003.632 3.633h46.742A3.637 3.637 0 0062 56.43V27.367a3.637 3.637 0 00-3.633-3.633zM2.422 11.625h49.164v4.844H2.422v-4.844zm1.21-7.266h46.743c.668 0 1.21.543 1.21 1.211v3.633H2.423V5.57c0-.668.543-1.21 1.21-1.21zm0 31.485c-.667 0-1.21-.543-1.21-1.211V18.89h49.164v4.843H11.625a3.637 3.637 0 00-3.633 3.633v8.477h-4.36zM59.579 56.43c0 .668-.543 1.21-1.21 1.21H11.624a1.21 1.21 0 01-1.21-1.21V27.367c0-.668.542-1.21 1.21-1.21h46.742c.668 0 1.211.542 1.211 1.21V56.43z" fill="#000"/><path d="M58.367 23.734h-4.36V5.57a3.637 3.637 0 00-3.632-3.633H3.633A3.637 3.637 0 000 5.57v29.063a3.637 3.637 0 003.633 3.633h4.36V56.43a3.637 3.637 0 003.632 3.633h46.742A3.637 3.637 0 0062 56.43V27.367a3.637 3.637 0 00-3.633-3.633zM2.422 11.625h49.164v4.844H2.422v-4.844zm1.21-7.266h46.743c.668 0 1.21.543 1.21 1.211v3.633H2.423V5.57c0-.668.543-1.21 1.21-1.21zm0 31.485c-.667 0-1.21-.543-1.21-1.211V18.89h49.164v4.843H11.625a3.637 3.637 0 00-3.633 3.633v8.477h-4.36zM59.579 56.43c0 .668-.543 1.21-1.21 1.21H11.624a1.21 1.21 0 01-1.21-1.21V27.367c0-.668.542-1.21 1.21-1.21h46.742c.668 0 1.211.542 1.211 1.21V56.43z" fill="url(#paint1_linear)"/><path d="M47.953 31c-1.32 0-2.593.433-3.633 1.213A6.052 6.052 0 0040.687 31a6.062 6.062 0 00-6.054 6.055 6.062 6.062 0 006.054 6.054 6.053 6.053 0 003.633-1.213 6.059 6.059 0 003.633 1.213 6.062 6.062 0 006.055-6.054A6.062 6.062 0 0047.953 31zm-10.898 6.055a3.631 3.631 0 016.356-2.402 3.624 3.624 0 010 4.804 3.631 3.631 0 01-6.356-2.402zm10.898 3.633a3.636 3.636 0 01-2.02-.614 6.045 6.045 0 000-6.038 3.636 3.636 0 012.02-.614 3.637 3.637 0 013.633 3.633 3.637 3.637 0 01-3.633 3.633z" fill="#000"/><path d="M47.953 31c-1.32 0-2.593.433-3.633 1.213A6.052 6.052 0 0040.687 31a6.062 6.062 0 00-6.054 6.055 6.062 6.062 0 006.054 6.054 6.053 6.053 0 003.633-1.213 6.059 6.059 0 003.633 1.213 6.062 6.062 0 006.055-6.054A6.062 6.062 0 0047.953 31zm-10.898 6.055a3.631 3.631 0 016.356-2.402 3.624 3.624 0 010 4.804 3.631 3.631 0 01-6.356-2.402zm10.898 3.633a3.636 3.636 0 01-2.02-.614 6.045 6.045 0 000-6.038 3.636 3.636 0 012.02-.614 3.637 3.637 0 013.633 3.633 3.637 3.637 0 01-3.633 3.633z" fill="url(#paint2_linear)"/><path d="M21.313 50.375h-4.844a1.21 1.21 0 100 2.422h4.843a1.21 1.21 0 100-2.422z" fill="#000"/><path d="M21.313 50.375h-4.844a1.21 1.21 0 100 2.422h4.843a1.21 1.21 0 100-2.422z" fill="url(#paint3_linear)"/><path d="M31 50.375h-4.844a1.21 1.21 0 100 2.422H31a1.21 1.21 0 100-2.422z" fill="#000"/><path d="M31 50.375h-4.844a1.21 1.21 0 100 2.422H31a1.21 1.21 0 100-2.422z" fill="url(#paint4_linear)"/><path d="M40.688 50.375h-4.844a1.21 1.21 0 100 2.422h4.843a1.21 1.21 0 100-2.422z" fill="#000"/><path d="M40.688 50.375h-4.844a1.21 1.21 0 100 2.422h4.843a1.21 1.21 0 100-2.422z" fill="url(#paint5_linear)"/><path d="M50.375 50.375h-4.844a1.21 1.21 0 100 2.422h4.844a1.21 1.21 0 100-2.422z" fill="#000"/><path d="M50.375 50.375h-4.844a1.21 1.21 0 100 2.422h4.844a1.21 1.21 0 100-2.422z" fill="url(#paint6_linear)"/><path d="M16.469 45.531h9.687a1.21 1.21 0 100-2.422H16.47a1.21 1.21 0 100 2.422z" fill="#000"/><path d="M16.469 45.531h9.687a1.21 1.21 0 100-2.422H16.47a1.21 1.21 0 100 2.422z" fill="url(#paint7_linear)"/><defs><linearGradient id="paint0_linear" x1="31" y1="43.109" x2="31" y2="45.531" gradientUnits="userSpaceOnUse"><stop stop-color="#EC407A"/><stop offset="1" stop-color="#C40135"/></linearGradient><linearGradient id="paint1_linear" x1="31" y1="1.938" x2="31" y2="60.063" gradientUnits="userSpaceOnUse"><stop stop-color="#EC407A"/><stop offset="1" stop-color="#C40135"/></linearGradient><linearGradient id="paint2_linear" x1="44.32" y1="31" x2="44.32" y2="43.109" gradientUnits="userSpaceOnUse"><stop stop-color="#EC407A"/><stop offset="1" stop-color="#C40135"/></linearGradient><linearGradient id="paint3_linear" x1="18.891" y1="50.375" x2="18.891" y2="52.797" gradientUnits="userSpaceOnUse"><stop stop-color="#EC407A"/><stop offset="1" stop-color="#C40135"/></linearGradient><linearGradient id="paint4_linear" x1="28.578" y1="50.375" x2="28.578" y2="52.797" gradientUnits="userSpaceOnUse"><stop stop-color="#EC407A"/><stop offset="1" stop-color="#C40135"/></linearGradient><linearGradient id="paint5_linear" x1="38.266" y1="50.375" x2="38.266" y2="52.797" gradientUnits="userSpaceOnUse"><stop stop-color="#EC407A"/><stop offset="1" stop-color="#C40135"/></linearGradient><linearGradient id="paint6_linear" x1="47.953" y1="50.375" x2="47.953" y2="52.797" gradientUnits="userSpaceOnUse"><stop stop-color="#EC407A"/><stop offset="1" stop-color="#C40135"/></linearGradient><linearGradient id="paint7_linear" x1="21.313" y1="43.109" x2="21.313" y2="45.531" gradientUnits="userSpaceOnUse"><stop stop-color="#EC407A"/><stop offset="1" stop-color="#C40135"/></linearGradient></defs></svg>
